X: 889
T: Missa Octavi toni coda Gloria
C: Giovanni Perluigi da Palestrina
L: 1/4
M: 3/2
N: Derived from Gloria_95_b.krn
Q: "Gloria"
V: 1 clef=treble
V: 2 clef=treble
V: 3 clef=treble
V: 4 clef=treble-8
V: 5 clef=treble-8
V: 6 clef=bass
K: C
[V:1] z4z2 | 
[V:2] G2G2F2 | 
[V:3] E2E2C2 | 
[V:4] E2G2A2 | 
[V:5] c4z2 | 
[V:6] C,2E,2F,2 | 
[V:1] z4z2 | 
[V:2] E2E2D2 | 
[V:3] C2C2B,2 | 
[V:4] G2G2G2 | 
[V:5] z4z2 | 
[V:6] C,2C,2G,2 | 
[V:1] z4z2 | 
[V:2] G2G2^F2 | 
[V:3] E2E2D2 | 
[V:4] B2c2A2 | 
[V:5] z4z2 | 
[V:6] E,2C,2D,2 | 
[V:1] d2d2c2 | 
[V:2] G4z2 | 
[V:3] D4G2 | 
[V:4] BBd2e2 | 
[V:5] G2B2c2 | 
[V:6] G,,4z2 | 
[V:1] B2B2A2 | 
[V:2] z4z2 | 
[V:3] G3F/ E/F2 | 
[V:4] d2d2d2 | 
[V:5] G2G2d2 | 
[V:6] z4z2 | 
[V:1] c2c2B2 | 
[V:2] z4z2 | 
[V:3] G2A2G2 | 
[V:4] e2f2d2 | 
[V:5] c2F2G2 | 
[V:6] z4z2 | 
[V:1] c4z2 | 
[V:2] G2G2F2 | 
[V:3] E4C2 | 
[V:4] c4z2 | 
[V:5] G4A2 | 
[V:6] C,2E,2F,2 | 
[V:1] G2G2F2 | 
[V:2] E4z2 | 
[V:3] E4C2 | 
[V:4] C2E2F2 | 
[V:5] G4A2 | 
[V:6] C,4z2 | 
[V:1] E4A2 | 
[V:2] G2G2F2 | 
[V:3] C4A,2 | 
[V:4] C4c2 | 
[V:5] G4z2 | 
[V:6] C,2E,2F,2 | 
[V:1] G2G3A | 
[V:2] E2E2D2 | 
[V:3] CDEFG2 | 
[V:4] c4B2- | 
[V:5] G4G2 | 
[V:6] C,2C,2G,,2 | 
[V:1] B2G2d2 | 
[V:2] G2G2^F2 | 
[V:3] D2E2D2 | 
[V:4] B2c2A2 | 
[V:5] G2E2A2 | 
[V:6] G,,2C,2D,2 | 
[V:1] BABcd2 | 
[V:2] G6- | 
[V:3] D2B,3C/ D/ | 
[V:4] B2dcBA | 
[V:5] G4G2 | 
[V:6] G,,4G,,2 | 
[V:1] c6 | 
[V:2] G6 | 
[V:3] E6 | 
[V:4] GFEDC2 | 
[V:5] E2CDEF | 
[V:6] C,D,E,F,G,2 | 
[V:1] B2c4 | 
[V:2] G6- | 
[V:3] D2C4 | 
[V:4] D2E4 | 
[V:5] G6 | 
[V:6] G,,2C,4 | 
[V:1] B6 |]  
[V:2] G6 |]  
[V:3] D6 |]  
[V:4] D6 |]  
[V:5] G6 |]  
[V:6] G,,6 |]  

